X:1
T:Polovetsian Dances
T:Polovetsian Dances
T:Alexander Porfirevich Borodin Arranged by: Felix Blumenfeld 
T:From Prince Igor
C:Alexander Porfirevich Borodin
C:
%%score { ( 1 4 5 ) | ( 2 3 ) }
L:1/8
Q:1/4=74
M:4/4
K:A
V:1 treble nm="Piano" snm="Pno."
V:4 treble 
V:5 treble 
V:2 treble 
V:3 treble 
V:1
 z4 (a2 g2) | bc' d'2 (3f'e'd' c'2 | [fa]4 (=f2 e2) | ^fg a2 (3c'ba g2 | [ce]4 (=c2 B2) | %5
 (de =f2) (3(a=gf e2) | [A=c]4 (=F2 E2) | (FG A2) (3(cBA G2) | A4 [E=G]4 | (F^G A2) (3(cBA G2) | %10
 A4 [d=g]4 | (f^g a2) (3(c'ba g2) | [cea]4 [ac'e']4 |!8va(! !fermata![e'a'c''e'']8!8va)! || %14
 B(B f2-) f(e/f/){de} (dc/B/) | c/d/e- e2- ef{cd} cB/A/ | FF B2- Bc{Bc} BA/G/ | A/G/F- F2 FGAc | %18
 BB f2- fe/f/{de} dc/B/ | c/d/e- e2 ef{cd} cB/A/ | F(F B2-) (Bc{Bc} BA/G/) | A/G/F- F2 (FGAc) | %22
 B,B, D2- DE{DE} DC/B,/ | C/D/E E2- (E=FEC) | =FF A2- AB{AB} A=G/F/ | A2 E4 E2 | F4 F2 G2 | (A8 | %28
 F) z x2 F2 G2 | [FG] [FG]2 [FG] [^EG] [EG]2 [EG] | !arpeggio![DGB]B f2- fe/f/{de} dc/B/ | %31
 c/d/e- e2 ef{cd} cB/A/ | !arpeggio![A,B,DF](F B2-) Bc{Bc} BA/G/ | A/G/F- F2 (FG Ac) | %34
 BB f2- fe/f/{de} dc/B/ | c/d/e- e2- ee/f/{ef} ed/c/ | [B,DF]F B2- BB/c/ BA/G/ | %37
 A/G/F- F2- FE/F/{EF} ED/C/ | B,B, D2- F2 G2 | A4 G4 | !arpeggio![DFB]B f2- fe/f/{de} dc/B/ | %41
 c/B/A- A2 z C2 C |[K:bass] B,B, F2- FE/F/{DE} DC/B,/ | C z z2 C C2 C | z A,2 A, z A,2 A, |] %45
V:2
!p! A, A,2 A, A, A,2 A, | A, A,2 A, A, A,2 A, | A, A,2 A, A, A,2 A, | A, A,2 A, A, A,2 A, | %4
 A, A,2 A, A, A,2 A, | A, A,2 A, A, A,2 A, | A, A,2 A, A, A,2 A, | A, A,2 A, A, A,2 A, | %8
 A, A,2 A, A, A,2 A, | A, A,2 A, A, A,2 A, | A, A,2 A, A, A,2 A, | A, A,2 A, A, A,2 A, | %12
 A, A,2 A, A, A,2 A, | !arpeggio!!fermata![Aeac']8 || %14
!p! [A,B,DF] [A,B,DF]2 [A,B,DF] !arpeggio![A,B,DG] [A,B,DG]2 [A,B,DG] | %15
 !arpeggio![A,CEA] [A,CEA]2 [A,CEA] !arpeggio![A,CEA] [A,CEA]2 [A,CE] | %16
 !arpeggio![A,B,D] [A,B,D]2 [A,B,DF] !arpeggio![A,B,D] [A,B,D]2 [A,B,D] | %17
 [A,C] [A,C]2 [A,C] [A,C] [A,C]2[K:bass] [F,CF] | %18
 !arpeggio![F,B,DG] [F,DG]2 [F,DG] [F,DG] [F,DG]2 [F,DG] | %19
 [F,CF] [F,CF]2 [F,CF] [F,CF] [F,CF]2 [F,CF] | %20
 [F,G,B,D] [F,G,B,D]2 [F,G,B,D] [F,G,B,D] [F,G,B,D]2 [F,G,B,D] | %21
 [F,A,C] [F,A,C]2 [F,A,C] [F,A,C] [F,A,C]2 [F,A,C] | %22
 [=F,A,D] [F,A,D]2 [F,A,] [F,A,B,] [F,A,B,]2 [F,A,] | %23
 [E,A,] [E,A,C]2 [E,A,C] [E,A,C] [E,A,C]2 [E,A,] | %24
 [E,A,D] [E,A,D]2 [E,A,D=F] [E,A,DF] [E,A,DF]2 [E,A,D] | %25
 [E,A,C] [E,A,]2 [E,A,C] [E,A,C] [E,A,]2 [E,A,] | %26
 [D,F,] [D,F,]2 [D,F,B,] [B,,F,B,] [B,,F,B,]2 [B,,D,F,] | %27
 [F,,C,F,] [F,A,]2 [F,A,] [E,F,A,] [E,F,A,]2 [E,F,] | %28
 [D,F,] [D,F,]2 [D,F,B,] [B,,D,F,] [B,,F,]2 [D,F,] | [C,B,] [C,B,]2 [C,B,] [C,B,] [C,B,]2 [C,B,] | %30
!mf! [E,,E,] [E,G,D]2 [E,G,D] [E,B,D] [E,B,D]2 E,, | E,, [E,A,C]2 [E,A,C] z [E,A,]2 E,, | %32
 E,, [E,A,B,D]2 [E,A,B,D] [E,G,B,D] [E,G,B,D]2 E,, | E,, [E,A,C]2 [E,A,C] [E,C] [E,C]2 E, | %34
 [D,B,F] [D,B,F]2 [D,B,F] [E,B,E] [E,B,E]2 E, | %35
 [C,G,E] [C,G,E]2 [C,G,E] [^A,,E,=G,C] [A,,E,G,C]2 A,, | %36
 B,, [B,,F,D]2 [B,,F,D] [E,G,D] [E,G,D]2 E,, | E,, [E,A,C]2 [E,A,C] [E,=G,^A,C] [E,G,A,C]2 E,, | %38
 E,, [D,F,]2 [D,F,B,] E,, [E,G,]2 E,, | A,, [A,,E,C]2 [A,,E,C] z [A,,E,C]2 [A,,E,C] | %40
!p! A,, [A,D]2 [A,D] [A,DE] [A,DE]2 [A,DE] | [CE] [CE]2 [CE] z [A,,E,]2 [A,,E,] | F,4 G,4 | %43
"^dim." A, [A,,E,]2 [A,,E,] [A,,E,] [A,,E,]2 [A,,E,] | [A,,E,C] z3 [A,,E,A,]2 z2 |] %45
V:3
 A8 | A8- | A8 | A8- | A8 | x8 | x8 | x8 | x8 | x8 | x8 | z4 (D2 =F2) | A4 z4 | x8 || x8 | x8 | %16
 x8 | x7[K:bass] x | x8 | x8 | x8 | x8 | x8 | x8 | x8 | x8 | x8 | x8 | x8 | x8 | x8 | x4 C4 | x8 | %33
 x8 | x8 | x8 | x8 | x8 | x8 | x8 | x8 | A,4 G,4 | z [A,,D,]2 [A,,D,] [A,,E,] [A,,E,]2 [A,,E,] | %43
 [A,,E,] x7 | x8 |] %45
V:4
 x8 | [g=b]4 [g_b]4 | d'c'/b/ a2 z4 | [^df]4 [=d=f]4 | a4 z4 | [_Bd]4 [_B^c]4 | (=fe/d/ =c2) z4 | %7
 [^D^F]4 [=D=F]4 | [CE]4 (B,2 C2) | [DF]4 ([D=F]4 | [CE]4) ^A2 B2- | [df]4 [d=f]4 | x8 | %13
!8va(! x8!8va)! || x8 | x8 | z4 (!>!^E4 | F) x3 F F2 A | B B2 B B B2 z | A A2 A A A2 z | z4 (^E4 | %21
 F) x7 | x4 (A4 | A4) x4 | x8 | E/D/C- C2[I:staff +1] C[I:staff -1]D ED/C/ | %26
 B,B, D2 DE{DE} DC/B,/ | A,/B,/C- C2 CD CA, | B,B, F2- FE/F/{DE} DC/B,/ | C8 | x4 F2 G2 | %31
 !>!A4 !>!A3 !arpeggio![CE] | x (F3 =F4) | !arpeggio![CE] x3 (A,2 [CE][EA]) | !>!A4 !>!G4 | %35
 !>!G4 !>!=G4 | x F3 =F4 | [CE] x6 !arpeggio![=G,^A,] | [D,F,] x3 DE{DE} DC/B,/ | C/B,/A,- A,2 x4 | %40
 x F3 G4 | A x7 |[K:bass] !arpeggio!D, x7 | C/B,/A,- A,2- A,4 | x8 |] %45
V:5
 x8 | x8 | x8 | x8 | x8 | x8 | x8 | x8 | x8 | x8 | x8 | B2 =A2 z4 | x8 |!8va(! x8!8va)! || x8 | %15
 x8 | x8 | x8 | x8 | x8 | x8 | x8 | x8 | x8 | x8 | x8 | x8 | x8 | x8 | x8 | x8 | x8 | %32
 x6 z !arpeggio![B,D=F] | x8 | x8 | x8 | x6 z !arpeggio![B,D=F] | x8 | x8 | x8 | x8 | x8 | %42
[K:bass] x8 | x8 | x8 |] %45

